packages/dnb-ui-lib/assets/icons/attachment_medium.svg

<svg width="24" height="24" viewBox="0 0 24 24" fill="none" xmlns="http://www.w3.org/2000/svg">
<path d="M13 23H2.5C1.94772 23 1.5 22.5523 1.5 22V2C1.5 1.44772 1.94772 1 2.5 1H12.5362C12.8304 1 13.1096 1.12951 13.2996 1.35406L18.2634 7.22036C18.4162 7.40092 18.5 7.62979 18.5 7.86631V9M23.25 18.3448L17.3956 12.3327C16.7205 11.6395 15.8048 11.25 14.85 11.25C13.8952 11.25 12.9796 11.6395 12.3044 12.3327C11.6293 13.026 11.25 13.9662 11.25 14.9467C11.25 15.9271 11.6293 16.8673 12.3044 17.5606L17.1129 22.4976C17.3343 22.733 17.5992 22.9208 17.892 23.0499C18.1848 23.1791 18.4997 23.2471 18.8184 23.2499C19.137 23.2528 19.4531 23.1904 19.748 23.0665C20.043 22.9426 20.3109 22.7596 20.5363 22.5282C20.7616 22.2968 20.9398 22.0216 21.0605 21.7188C21.1812 21.4159 21.2419 21.0914 21.2391 20.7642C21.2364 20.4369 21.1702 20.1136 21.0444 19.8129C20.9186 19.5122 20.7358 19.2403 20.5065 19.0129L15.6985 14.0732C15.4723 13.8487 15.1692 13.7244 14.8545 13.7272C14.5399 13.7299 14.2389 13.8595 14.0164 14.0879C13.7938 14.3163 13.6676 14.6254 13.6648 14.9484C13.662 15.2715 13.7829 15.5828 14.0015 15.8152L18.81 20.7545" stroke="black" stroke-width="1.5" stroke-linecap="round" stroke-linejoin="round"/>
</svg>

<svg width="24" height="24" viewBox="0 0 24 24" fill="none" xmlns="http://www.w3.org/2000/svg"><path d="M13 23H2.5a1 1 0 01-1-1V2a1 1 0 011-1h10.036a1 1 0 01.764.354l4.963 5.866a1 1 0 01.237.646V9m4.75 9.345l-5.854-6.012a3.553 3.553 0 00-2.546-1.083c-.955 0-1.87.39-2.546 1.083a3.748 3.748 0 00-1.054 2.614c0 .98.38 1.92 1.054 2.614l4.809 4.937c.221.235.486.423.779.552a2.345 2.345 0 001.856.017c.295-.124.563-.307.788-.539.226-.231.404-.506.524-.81a2.521 2.521 0 00-.553-2.705l-4.809-4.94a1.183 1.183 0 00-.844-.346 1.184 1.184 0 00-.838.36 1.249 1.249 0 00-.351.861 1.25 1.25 0 00.337.867l4.808 4.94" stroke="#000" stroke-width="1.5" stroke-linecap="round" stroke-linejoin="round"/></svg>
